X:1
M:6/8
K:D
A/2G/2|FG/2A/2 B/2A/2F/2A/2|df|d/2c/2B/2c/2 A/2G/2A/2B/2|\
Ad/2e/2 d/2B/2G/2G/2|
BB/2c/2 dA/2B/2|AA AA|F3/2A/2 Bc/2d/2|dd d:|
A/2F/2|G3/2E/2 FA|G3/2A/2 AB|c/2c/2B/2c/2 AA/2c/2|\
cd/2c/2 AG/2F/2|
G3/2F/2 DE|FG A/2A/2F/2G/2|AA G/2A/2B/2c/2|dB A:|